X:242
T: Bauer und Schneider (3-45), S. 133
N: P1017
O: Lothringen
S: PINCK, Louis: Verklingende Weisen, Bd3, Metz 1933]
R: Berufslied]
M: 3/4
L: 1/8
K: G
G2 | d4e2 | d3cB2 | B4A2 | G2G2
BB | B3AG2 | G2F2E2 | F2F2E2 | D2D2
DD | G2G2A2 | B2G2B2 | d2d2
ee | d2d2cc | B2G2A2 | G2G2

@@@ Tune index: 7792
